X: 4564
T: Both Meat And Drink
R: jig
M: 6/8
K: Gmajor
|:DGB d^cd|edB cAF|GB/c/d g2 a|bag f/g/af|
geg fdf|e2 c gfe|f^ef agf|g2 B cAF:|
|:g2 f gfg|d2 G GFG|=f2 e fef|agf daf|
g2 a bag|f/g/af gdB|cAG FGA|AGF G3:|

